build/svg/cmd/lc_linenumberingdialog.svg

<?xml version="1.0" encoding="UTF-8" standalone="no"?>
<svg
   xmlns:dc="http://purl.org/dc/elements/1.1/"
   xmlns:cc="http://creativecommons.org/ns#"
   xmlns:rdf="http://www.w3.org/1999/02/22-rdf-syntax-ns#"
   xmlns:svg="http://www.w3.org/2000/svg"
   xmlns="http://www.w3.org/2000/svg"
   xmlns:sodipodi="http://sodipodi.sourceforge.net/DTD/sodipodi-0.dtd"
   xmlns:inkscape="http://www.inkscape.org/namespaces/inkscape"
   viewBox="0 0 24 24"
   version="1.1"
   id="svg6"
   sodipodi:docname="lc_linenumberingdialog.svg"
   inkscape:version="0.92.5 (2060ec1f9f, 2020-04-08)"
   inkscape:export-filename="/home/jupiter007/Libreoffice yaru theme fullcolor/build/cmd/lc_linenumberingdialog.png"
   inkscape:export-xdpi="96"
   inkscape:export-ydpi="96">
  <metadata
     id="metadata12">
    <rdf:RDF>
      <cc:Work
         rdf:about="">
        <dc:format>image/svg+xml</dc:format>
        <dc:type
           rdf:resource="http://purl.org/dc/dcmitype/StillImage" />
        <dc:title />
      </cc:Work>
    </rdf:RDF>
  </metadata>
  <defs
     id="defs10" />
  <sodipodi:namedview
     pagecolor="#ffffff"
     bordercolor="#666666"
     borderopacity="1"
     objecttolerance="10"
     gridtolerance="10"
     guidetolerance="10"
     inkscape:pageopacity="0"
     inkscape:pageshadow="2"
     inkscape:window-width="1920"
     inkscape:window-height="1011"
     id="namedview8"
     showgrid="true"
     inkscape:zoom="19.666668"
     inkscape:cx="-7.7540081"
     inkscape:cy="15.757053"
     inkscape:window-x="1920"
     inkscape:window-y="32"
     inkscape:window-maximized="1"
     inkscape:current-layer="svg6"
     inkscape:snap-object-midpoints="true"
     inkscape:object-nodes="false"
     inkscape:snap-nodes="false">
    <inkscape:grid
       type="xygrid"
       id="grid822" />
  </sodipodi:namedview>
  <path
     style="opacity:0.6;fill:#000000;fill-opacity:1;stroke:none;stroke-width:2;stroke-linecap:round;stroke-linejoin:round;stroke-miterlimit:4;stroke-dasharray:none;stroke-opacity:1"
     d="M 4 8 C 3.446 8 3 8.446 3 9 L 3 13 L 2 13 C 1.446 13 1 13.446 1 14 L 1 18 C 1 18.554 1.446 19 2 19 L 7 19 C 7.554 19 8 18.554 8 18 L 8 14 C 8 13.813633 7.9357332 13.649055 7.8476562 13.5 C 7.9357332 13.350945 8 13.186367 8 13 L 8 9 C 8 8.446 7.554 8 7 8 L 4 8 z "
     id="rect856" />
  <path
     inkscape:connector-curvature="0"
     style="opacity:1;fill:#ffffff;fill-opacity:1;stroke:none;stroke-width:2;stroke-linecap:round;stroke-linejoin:round;stroke-miterlimit:4;stroke-dasharray:none;stroke-opacity:1"
     d="m 4,9 v 1 h 1 v 2 H 4 v 1 H 7 V 12 H 6 V 10 H 7 V 9 Z"
     id="rect846" />
  <path
     inkscape:connector-curvature="0"
     style="opacity:1;fill:#ffffff;fill-opacity:1;stroke:none;stroke-width:2;stroke-linecap:round;stroke-linejoin:round;stroke-miterlimit:4;stroke-dasharray:none;stroke-opacity:1"
     d="m 2,14 v 1 h 1 v 2 H 2 v 1 H 7 V 17 H 6 v -2 h 1 v -1 z m 2,1 h 1 v 2 H 4 Z"
     id="rect852" />
  <path
     sodipodi:nodetypes="cccccccccccc"
     style="opacity:0.6;fill:#000000;stroke:#000000;stroke-width:2;stroke-linejoin:round;stroke-miterlimit:4;stroke-dasharray:none"
     id="path829"
     d="m 13,20 c -2,0 -3,0 -3,-2 V 5.9999998 c 0,-2 1,-2 3,-2 h 5 l 1,1 2,2 1,1 V 9.4062501 18 c 0,2 -1,2 -3,2 z"
     inkscape:connector-curvature="0" />
  <path
     inkscape:connector-curvature="0"
     d="m 13,20 c -2,0 -3,0 -3,-2 V 5.9999998 c 0,-2 1,-2 3,-2 h 5 l 1,1 2,2 1,1 V 9.4062501 18 c 0,2 -1,2 -3,2 z"
     id="path2"
     style="fill:#ffffff"
     sodipodi:nodetypes="cccccccccccc" />
  <path
     inkscape:connector-curvature="0"
     d="m 18,7.9999998 v -4 l 4,4 z"
     id="path4"
     style="fill:#6d6d6d;fill-opacity:1" />
  <rect
     style="opacity:1;vector-effect:none;fill:#924d8b;fill-opacity:1;stroke:none;stroke-width:2.15384626;stroke-linecap:round;stroke-linejoin:round;stroke-miterlimit:4;stroke-dasharray:none;stroke-dashoffset:0;stroke-opacity:1"
     id="rect7299"
     width="8"
     height="2"
     x="12"
     y="10"
     inkscape:export-filename="/home/jupiter007/Libreoffice yaru theme fullcolor/build/cmd/rect7303.png"
     inkscape:export-xdpi="96"
     inkscape:export-ydpi="96" />
  <rect
     inkscape:export-ydpi="96"
     inkscape:export-xdpi="96"
     inkscape:export-filename="/home/jupiter007/Libreoffice yaru theme fullcolor/build/cmd/rect7303.png"
     y="15"
     x="12"
     height="2"
     width="8"
     id="rect844"
     style="opacity:1;vector-effect:none;fill:#924d8b;fill-opacity:1;stroke:none;stroke-width:2.15384626;stroke-linecap:round;stroke-linejoin:round;stroke-miterlimit:4;stroke-dasharray:none;stroke-dashoffset:0;stroke-opacity:1" />
</svg>

<svg xmlns="http://www.w3.org/2000/svg" viewBox="0 0 24 24"><path d="M4 8c-.554 0-1 .446-1 1v4H2c-.554 0-1 .446-1 1v4c0 .554.446 1 1 1h5c.554 0 1-.446 1-1v-4a.975.975 0 00-.152-.5A.975.975 0 008 13V9c0-.554-.446-1-1-1H4z" opacity=".6"/><path d="M4 9v1h1v2H4v1h3v-1H6v-2h1V9zM2 14v1h1v2H2v1h5v-1H6v-2h1v-1zm2 1h1v2H4z" fill="#fff"/><path d="M13 20c-2 0-3 0-3-2V6c0-2 1-2 3-2h5l1 1 2 2 1 1v10c0 2-1 2-3 2z" opacity=".6" stroke="#000" stroke-width="2" stroke-linejoin="round"/><path d="M13 20c-2 0-3 0-3-2V6c0-2 1-2 3-2h5l1 1 2 2 1 1v10c0 2-1 2-3 2z" fill="#fff"/><path d="M18 8V4l4 4z" fill="#6d6d6d"/><path fill="#924d8b" d="M12 10h8v2h-8zM12 15h8v2h-8z"/></svg>
